luts/logc3_ei800_to_rec709_aces.cube
# LogC3 (EI800) -> Rec.709 display via ACES 1.0 SDR Video
LUT_3D_SIZE 9
DOMAIN_MIN 0 0 0
DOMAIN_MAX 1 1 1
0.000213 0.000213 0.000213
0.000213 0.000213 0.000213
0.164602 0.000000 0.000000
0.380320 0.000000 0.000000
0.743499 0.000000 0.000000
1.051183 0.000000 0.000000
1.132754 0.475363 0.134783
1.095254 0.818951 0.434453
1.056445 0.945325 0.782067
0.000000 0.049179 0.000000
0.000000 0.058099 0.000000
0.173991 0.042005 0.000000
0.390905 0.000000 0.000000
0.746408 0.000000 0.000000
1.047991 0.000000 0.000000
1.128154 0.504538 0.125555
1.093832 0.823256 0.432876
1.056246 0.945814 0.781863
0.000000 0.182609 0.000000
0.000000 0.185814 0.000000
0.143808 0.185037 0.000000
0.400144 0.165636 0.000000
0.750872 0.064971 0.000000
1.042287 0.194783 0.000000
1.121289 0.544047 0.109943
1.091762 0.829466 0.430509
1.055948 0.946547 0.781552
0.000000 0.408678 0.000000
0.000000 0.409745 0.000000
0.000000 0.410281 0.000000
0.352779 0.408327 0.000000
0.757987 0.396906 0.000000
1.021631 0.448924 0.000000
1.100960 0.641893 0.000000
1.085920 0.846617 0.423310
1.055041 0.948772 0.780575
0.000000 0.746909 0.000000
0.000000 0.746778 0.000000
0.000000 0.746335 0.000000
0.000000 0.743383 0.000000
0.691052 0.732894 0.000000
0.969970 0.738159 0.000000
1.059161 0.795183 0.000000
1.072335 0.883734 0.422334
1.052473 0.955072 0.777490
0.000000 0.942599 0.000000
0.000000 0.941698 0.000000
0.000000 0.940315 0.000000
0.000000 0.936022 0.000000
0.668795 0.924928 0.000000
0.917293 0.914476 0.000000
1.020520 0.916648 0.112712
1.050520 0.937338 0.460292
1.046611 0.969307 0.770205
0.585386 1.000771 0.242421
0.601732 1.000246 0.243060
0.624307 0.999479 0.244040
0.681282 0.997382 0.247182
0.787832 0.992773 0.257419
0.910511 0.986430 0.288693
0.996317 0.981930 0.377162
1.029954 0.982442 0.575628
1.036740 0.989208 0.796237
0.881516 1.013070 0.663006
0.882928 1.012992 0.663149
0.885033 1.012875 0.663367
0.891321 1.012522 0.664057
0.908340 1.011551 0.666263
0.942970 1.009491 0.673236
0.986864 1.006724 0.694114
1.014965 1.004900 0.751680
1.028415 1.004558 0.854719
0.968568 1.020344 0.887694
0.968725 1.020334 0.887709
0.968964 1.020320 0.887733
0.969704 1.020274 0.887809
0.971947 1.020134 0.888052
0.978028 1.019755 0.888829
0.990335 1.018980 0.891288
1.005043 1.018063 0.898665
1.020604 1.017178 0.919179
0.000000 0.000000 0.048128
0.000000 0.000000 0.048370
0.164368 0.000000 0.049007
0.381192 0.000000 0.050198
0.743368 0.000000 0.053920
1.051439 0.000000 0.087004
1.133276 0.469913 0.193659
1.094965 0.818000 0.463386
1.056237 0.945201 0.787481
0.000000 0.028566 0.040013
0.038670 0.038670 0.038670
0.180854 0.000000 0.041225
0.386441 0.000000 0.039423
0.744617 0.000000 0.026483
1.048209 0.000000 0.063314
1.128651 0.499795 0.184334
1.093531 0.822344 0.461940
1.056038 0.945691 0.787286
0.000000 0.174654 0.000000
0.000000 0.177401 0.000000
0.160051 0.176818 0.000000
0.398142 0.157170 0.000000
0.747455 0.000000 0.000000
1.042440 0.181768 0.000000
1.121748 0.540154 0.169056
1.091444 0.828609 0.459771
1.055738 0.946426 0.786988
0.000000 0.404606 0.000000
0.000000 0.405610 0.000000
0.000000 0.406008 0.000000
0.363001 0.403666 0.000000
0.757153 0.393104 0.000000
1.021485 0.445830 0.000000
1.101308 0.639701 0.104567
1.085556 0.845907 0.453192
1.054827 0.948656 0.786055
0.000000 0.745507 0.000000
0.000000 0.745358 0.000000
0.000000 0.744893 0.000000
0.000000 0.741896 0.000000
0.694294 0.731474 0.000000
0.970065 0.737186 0.000000
1.059253 0.794659 0.000000
1.072193 0.883462 0.434199
1.052247 0.954971 0.783113
0.000000 0.942310 0.000000
0.000000 0.941408 0.000000
0.000000 0.940024 0.000000
0.000000 0.935737 0.000000
0.670919 0.924693 0.000000
0.917647 0.914315 0.000000
1.020537 0.916541 0.112142
1.050540 0.937279 0.460127
1.046455 0.969254 0.773960
0.587895 1.000674 0.242291
0.604048 1.000151 0.242931
0.626368 0.999389 0.243913
0.682763 0.997306 0.247059
0.788562 0.992720 0.257307
0.910718 0.986400 0.288602
0.996361 0.981910 0.377145
1.029959 0.982430 0.575550
1.036742 0.989201 0.796208
0.881729 1.013057 0.662981
0.883137 1.012978 0.663124
0.885236 1.012861 0.663343
0.891508 1.012510 0.664033
0.908485 1.011540 0.666239
0.943048 1.009484 0.673214
0.986888 1.006720 0.694094
1.014970 1.004897 0.751676
1.028416 1.004556 0.854709
0.968592 1.020342 0.887691
0.968749 1.020333 0.887707
0.968987 1.020318 0.887731
0.969727 1.020272 0.887806
0.971968 1.020133 0.888049
0.978045 1.019753 0.888826
0.990343 1.018979 0.891285
1.005046 1.018063 0.898662
1.020605 1.017178 0.919178
0.000000 0.000000 0.168208
0.000000 0.000000 0.168403
0.145510 0.000000 0.168143
0.391483 0.000000 0.165301
0.743227 0.000000 0.170563
1.052067 0.000000 0.198546
1.134044 0.460055 0.277195
1.094536 0.816533 0.502796
1.055940 0.945013 0.795229
0.000000 0.000000 0.164485
0.000000 0.000000 0.164825
0.169771 0.000000 0.164276
0.390115 0.000000 0.161650
0.746008 0.000000 0.166475
1.048831 0.000000 0.191842
1.129390 0.490942 0.271351
1.093085 0.820938 0.501504
1.055739 0.945505 0.795044
0.000000 0.153064 0.153760
0.000000 0.155086 0.153447
0.149960 0.149960 0.149960
0.384458 0.134674 0.152441
0.744230 0.000000 0.156027
1.043042 0.143457 0.179453
1.122438 0.532484 0.262287
1.090972 0.827290 0.499566
1.055438 0.946243 0.794762
0.000000 0.393263 0.076280
0.000000 0.394418 0.077282
0.000000 0.394937 0.078608
0.362883 0.392173 0.081467
0.751240 0.382397 0.086437
1.021631 0.435633 0.118630
1.101821 0.634390 0.232346
1.085012 0.844815 0.493716
1.054522 0.948482 0.793878
0.000000 0.742873 0.000000
0.000000 0.742713 0.000000
0.000000 0.742233 0.000000
0.000000 0.739206 0.000000
0.697158 0.728837 0.000000
0.969899 0.735107 0.000000
1.059158 0.793273 0.126683
1.071491 0.882809 0.476988
1.051924 0.954820 0.791106
0.000000 0.941867 0.000000
0.000000 0.940964 0.000000
0.000000 0.939580 0.000000
0.111185 0.935302 0.000000
0.674118 0.924336 0.000000
0.918184 0.914068 0.000000
1.020559 0.916377 0.111235
1.050570 0.937188 0.459875
1.046086 0.969147 0.782596
0.591666 1.000526 0.242094
0.607528 1.000008 0.242735
0.629469 0.999253 0.243719
0.684995 0.997190 0.246873
0.789669 0.992639 0.257138
0.911033 0.986355 0.288462
0.996426 0.981881 0.377118
1.029967 0.982411 0.575431
1.036746 0.989191 0.796162
0.882052 1.013036 0.662944
0.883454 1.012958 0.663087
0.885545 1.012841 0.663306
0.891792 1.012491 0.663996
0.908707 1.011525 0.666203
0.943168 1.009474 0.673180
0.986925 1.006715 0.694065
1.014978 1.004894 0.751670
1.028417 1.004554 0.854693
0.968628 1.020339 0.887687
0.968785 1.020330 0.887703
0.969023 1.020315 0.887726
0.969761 1.020269 0.887802
0.972000 1.020130 0.888045
0.978069 1.019751 0.888822
0.990356 1.018977 0.891282
1.005051 1.018062 0.898659
1.020607 1.017177 0.919178
0.000000 0.000000 0.377941
0.000000 0.000000 0.378076
0.000000 0.000000 0.378165
0.369923 0.000000 0.376769
0.764263 0.000000 0.379602
1.052914 0.000000 0.399272
1.136057 0.425992 0.456555
1.093343 0.811778 0.601566
1.055117 0.944428 0.816696
0.000000 0.000000 0.375879
0.000000 0.000000 0.376075
0.065940 0.000000 0.376003
0.384548 0.000000 0.374564
0.761754 0.000000 0.377297
1.050449 0.000000 0.396596
1.131307 0.460655 0.453355
1.091833 0.816383 0.600568
1.054912 0.944926 0.816536
0.000000 0.058276 0.372270
0.000000 0.063555 0.372437
0.095726 0.058936 0.372313
0.390251 0.000000 0.371124
0.754794 0.000000 0.373814
1.045609 0.000000 0.391883
1.124195 0.506498 0.448511
1.089634 0.823017 0.599077
1.054604 0.945673 0.816293
0.000000 0.352621 0.350108
0.000000 0.354216 0.350410
0.000000 0.355261 0.350992
0.352371 0.352371 0.352371
0.732172 0.343441 0.355781
1.022373 0.399615 0.372786
1.103022 0.616530 0.433620
1.083438 0.841290 0.594603
1.053671 0.947940 0.815533
0.000000 0.730642 0.268773
0.000000 0.730571 0.269422
0.000000 0.730205 0.270375
0.000000 0.727419 0.273154
0.692361 0.717163 0.281967
0.967107 0.725374 0.311186
1.057865 0.787453 0.395453
1.069396 0.880727 0.582096
1.051025 0.954352 0.813161
0.000000 0.940610 0.000000
0.000000 0.939706 0.000000
0.000000 0.938321 0.000000
0.136144 0.934047 0.000000
0.675044 0.923123 0.000000
0.917551 0.912921 0.138647
1.018933 0.915391 0.317895
1.048513 0.936404 0.549364
1.045067 0.968821 0.805986
0.603138 1.000064 0.241469
0.618137 0.999556 0.242115
0.638940 0.998829 0.243108
0.691841 0.996830 0.246285
0.793107 0.992387 0.256601
0.912022 0.986213 0.288019
0.996634 0.981788 0.377036
1.029990 0.982353 0.575045
1.036758 0.989159 0.796019
0.883063 1.012971 0.662827
0.884448 1.012894 0.662971
0.886512 1.012779 0.663189
0.892682 1.012432 0.663880
0.909402 1.011475 0.666090
0.943543 1.009442 0.673072
0.987041 1.006699 0.693971
1.015001 1.004883 0.751652
1.028419 1.004547 0.854643
0.968742 1.020330 0.887674
0.968898 1.020320 0.887690
0.969136 1.020306 0.887714
0.969871 1.020260 0.887790
0.972101 1.020121 0.888033
0.978149 1.019743 0.888810
0.990398 1.018972 0.891270
1.005066 1.018058 0.898649
1.020612 1.017174 0.919176
0.000000 0.000000 0.715927
0.000000 0.000000 0.716022
0.000000 0.000000 0.716169
0.221257 0.000000 0.715058
0.750142 0.000000 0.710816
1.057968 0.000000 0.715580
1.143378 0.271392 0.733818
1.092094 0.795305 0.775532
1.053385 0.942605 0.863972
0.000000 0.000000 0.715172
0.000000 0.000000 0.715268
0.000000 0.000000 0.715415
0.247667 0.000000 0.714103
0.756754 0.000000 0.710021
1.057607 0.000000 0.714776
1.138588 0.331640 0.732113
1.090377 0.800644 0.774919
1.053169 0.943124 0.863862
0.000000 0.000000 0.714015
0.000000 0.000000 0.714112
0.000000 0.000000 0.714266
0.281803 0.000000 0.712646
0.760561 0.000000 0.708751
1.055953 0.000000 0.713464
1.131274 0.401497 0.729528
1.087880 0.808306 0.774014
1.052845 0.943903 0.863695
0.000000 0.194442 0.707261
0.000000 0.197044 0.707280
0.000000 0.200296 0.707283
0.289768 0.192247 0.706002
0.759679 0.076485 0.703125
1.035404 0.210034 0.706089
1.108890 0.548792 0.721679
1.080850 0.829278 0.771369
1.051861 0.946262 0.863176
0.000000 0.684231 0.671163
0.000000 0.684567 0.671309
0.000000 0.684636 0.671489
0.000000 0.682791 0.671874
0.672981 0.672981 0.672981
0.957646 0.688663 0.678741
1.055034 0.766102 0.701865
1.064957 0.873882 0.764507
1.049072 0.952920 0.861582
0.000000 0.936433 0.620127
0.000000 0.935543 0.620323
0.000000 0.934164 0.620619
0.000000 0.929834 0.621563
0.642091 0.918444 0.624831
0.906131 0.907765 0.637372
1.009742 0.911061 0.672780
1.042065 0.933614 0.749173
1.042781 0.967864 0.856957
0.597852 0.999026 0.512932
0.612845 0.998529 0.513301
0.633631 0.997810 0.513868
0.686445 0.995833 0.515682
0.787730 0.991424 0.521617
0.906682 0.985277 0.540613
0.991258 0.980849 0.595480
1.025133 0.981550 0.710677
1.034413 0.988715 0.843987
0.886220 1.012767 0.662452
0.887550 1.012692 0.662596
0.889533 1.012581 0.662816
0.895464 1.012246 0.663509
0.911578 1.011321 0.665726
0.944729 1.009341 0.672727
0.987409 1.006646 0.693670
1.015075 1.004850 0.751592
1.028426 1.004524 0.854478
0.969105 1.020300 0.887633
0.969259 1.020291 0.887649
0.969493 1.020277 0.887673
0.970219 1.020231 0.887749
0.972422 1.020094 0.887992
0.978401 1.019721 0.888770
0.990530 1.018957 0.891232
1.005115 1.018048 0.898616
1.020630 1.017166 0.919169
0.000000 0.000000 0.941978
0.000000 0.000000 0.941989
0.000000 0.000000 0.942006
0.000000 0.000000 0.942059
0.614449 0.000000 0.935389
1.049619 0.000000 0.929569
1.161503 0.000000 0.930655
1.107579 0.720368 0.918173
1.052191 0.936694 0.928087
0.000000 0.000000 0.941892
0.000000 0.000000 0.941903
0.000000 0.000000 0.941920
0.000000 0.000000 0.941973
0.623879 0.000000 0.935160
1.050504 0.000000 0.929475
1.161463 0.000000 0.930564
1.104804 0.730320 0.917562
1.051939 0.937296 0.928017
0.000000 0.000000 0.941761
0.000000 0.000000 0.941772
0.000000 0.000000 0.941789
0.000000 0.000000 0.941842
0.637804 0.000000 0.934817
1.051511 0.000000 0.929331
1.161401 0.000000 0.930426
1.100839 0.744188 0.916690
1.051563 0.938194 0.927913
0.000000 0.000000 0.941344
0.000000 0.000000 0.941355
0.000000 0.000000 0.941372
0.000000 0.000000 0.941131
0.671915 0.000000 0.933868
1.052876 0.000000 0.928868
1.152016 0.000000 0.927851
1.090215 0.779440 0.914351
1.050426 0.940897 0.927593
0.000000 0.453895 0.926883
0.000000 0.455292 0.926825
0.000000 0.457411 0.926736
0.000000 0.461327 0.926043
0.650604 0.449610 0.921942
1.007085 0.474954 0.916901
1.079310 0.653304 0.911089
1.067386 0.847528 0.909247
1.047220 0.948456 0.926651
0.000000 0.921668 0.892599
0.000000 0.921082 0.892554
0.000000 0.920031 0.892471
0.000000 0.915860 0.892132
0.550371 0.903222 0.891202
0.890908 0.890908 0.890908
0.999765 0.897442 0.893061
1.037234 0.925430 0.901544
1.040050 0.965113 0.924209
0.476475 0.998281 0.873234
0.500881 0.997682 0.873216
0.533502 0.996815 0.873194
0.611680 0.994420 0.873153
0.744529 0.989287 0.873252
0.884849 0.982485 0.874371
0.977827 0.978015 0.879079
1.016261 0.979413 0.891711
1.030484 0.987567 0.918851
0.878099 1.011844 0.828518
0.879434 1.011770 0.828575
0.881425 1.011661 0.828661
0.887385 1.011330 0.828937
0.903584 1.010418 0.829824
0.937000 1.008466 0.832681
0.980314 1.005821 0.841468
1.009426 1.004153 0.864616
1.025540 1.004123 0.905605
0.970237 1.020207 0.887501
0.970385 1.020198 0.887517
0.970610 1.020184 0.887541
0.971308 1.020141 0.887617
0.973427 1.020009 0.887862
0.979190 1.019648 0.888643
0.990946 1.018908 0.891111
1.005271 1.018016 0.898511
1.020686 1.017140 0.919148
0.000000 0.000000 1.025387
0.000000 0.000000 1.025388
0.000000 0.000000 1.025390
0.000000 0.000000 1.025396
0.000000 0.000000 1.025417
0.988200 0.000000 1.012756
1.157465 0.000000 1.009800
1.185844 0.000000 1.007138
1.059797 0.910400 0.982158
0.000000 0.000000 1.025376
0.000000 0.000000 1.025377
0.000000 0.000000 1.025379
0.000000 0.000000 1.025386
0.000000 0.000000 1.025407
0.989778 0.000000 1.012720
1.157563 0.000000 1.009787
1.185847 0.000000 1.007129
1.059361 0.911484 0.982077
0.000000 0.000000 1.025360
0.000000 0.000000 1.025361
0.000000 0.000000 1.025363
0.000000 0.000000 1.025370
0.000000 0.000000 1.025391
0.992144 0.000000 1.012665
1.157712 0.000000 1.009766
1.185851 0.000000 1.007114
1.058712 0.913096 0.981956
0.000000 0.000000 1.025308
0.000000 0.000000 1.025310
0.000000 0.000000 1.025312
0.000000 0.000000 1.025319
0.000000 0.000000 1.025339
0.999316 0.000000 1.012496
1.158005 0.000000 1.009704
1.185864 0.000000 1.007068
1.056778 0.917870 0.981595
0.000000 0.000000 1.025144
0.000000 0.000000 1.025145
0.000000 0.000000 1.025147
0.000000 0.000000 1.025154
0.200625 0.000000 1.023028
1.015576 0.000000 1.012058
1.158493 0.000000 1.009513
1.141543 0.561985 0.997345
1.051584 0.930484 0.980619
0.000000 0.791626 0.992568
0.000000 0.791983 0.992544
0.000000 0.792524 0.992509
0.000000 0.794221 0.992398
0.000000 0.789159 0.990903
0.899318 0.775172 0.987033
1.033031 0.809096 0.983727
1.049280 0.886289 0.979610
1.041103 0.955129 0.978583
0.000000 1.001776 0.973554
0.000000 1.000923 0.973476
0.000000 0.999635 0.973359
0.000000 0.995767 0.973014
0.622817 0.986570 0.972231
0.857794 0.976489 0.971477
0.971358 0.971359 0.971358
1.012022 0.974207 0.972243
1.028033 0.984537 0.975606
0.846557 1.011633 0.964819
0.848326 1.011542 0.964815
0.850957 1.011404 0.964811
0.858782 1.010993 0.964797
0.879692 1.009870 0.964771
0.920863 1.007559 0.964792
0.970712 1.004641 0.965214
1.003128 1.002988 0.967073
1.021318 1.003250 0.972039
0.966703 1.019729 0.947831
0.966851 1.019720 0.947837
0.967076 1.019706 0.947847
0.967772 1.019663 0.947878
0.969889 1.019533 0.947978
0.975653 1.019178 0.948300
0.987450 1.018452 0.949343
1.002010 1.017586 0.952577
1.018138 1.016780 0.961214
0.000000 0.087038 1.054574
0.000000 0.087040 1.054574
0.000000 0.087043 1.054574
0.000000 0.087052 1.054575
0.000000 0.087081 1.054576
0.000000 0.087175 1.054582
1.133580 0.000000 1.039684
1.179506 0.219343 1.034737
1.142037 0.642959 1.023297
0.000000 0.087023 1.054573
0.000000 0.087025 1.054573
0.000000 0.087028 1.054573
0.000000 0.087037 1.054574
0.000000 0.087066 1.054576
0.000000 0.087160 1.054581
1.133751 0.000000 1.039678
1.179502 0.219636 1.034732
1.142042 0.642933 1.023297
0.000000 0.087000 1.054572
0.000000 0.087002 1.054572
0.000000 0.087005 1.054572
0.000000 0.087014 1.054572
0.000000 0.087044 1.054574
0.000000 0.087137 1.054580
1.134010 0.000000 1.039669
1.179496 0.220082 1.034726
1.142049 0.642893 1.023297
0.000000 0.086929 1.054567
0.000000 0.086930 1.054567
0.000000 0.086933 1.054567
0.000000 0.086943 1.054568
0.000000 0.086972 1.054570
0.000000 0.087066 1.054576
1.134817 0.000000 1.039640
1.179477 0.221484 1.034704
1.142073 0.642766 1.023297
0.000000 0.086698 1.054553
0.000000 0.086700 1.054553
0.000000 0.086703 1.054553
0.000000 0.086712 1.054554
0.000000 0.086742 1.054556
0.000000 0.086836 1.054561
1.137297 0.000000 1.039551
1.179445 0.224026 1.034657
1.142150 0.642357 1.023297
0.000000 0.085956 1.054508
0.000000 0.085957 1.054508
0.000000 0.085960 1.054508
0.000000 0.085970 1.054509
0.000000 0.085999 1.054511
0.700238 0.000000 1.047119
1.142846 0.000000 1.039323
1.179399 0.228163 1.034549
1.080415 0.854709 1.011751
0.000000 0.960598 1.011329
0.000000 0.960638 1.011326
0.000000 0.960698 1.011321
0.000000 0.960888 1.011306
0.000000 0.961491 1.011257
0.701245 0.937146 1.008666
0.975194 0.928191 1.006909
1.026384 0.941131 1.005519
1.033431 0.969959 1.003671
0.681025 1.016570 1.001879
0.688357 1.016287 1.001855
0.698926 1.015872 1.001819
0.728117 1.014677 1.001720
0.792366 1.011803 1.001482
0.882879 1.007176 1.001111
0.960733 1.002734 1.000783
1.000718 1.000718 1.000718
1.019150 1.001359 1.000971
0.955665 1.019413 0.998257
0.955861 1.019401 0.998256
0.956159 1.019384 0.998255
0.957079 1.019328 0.998253
0.959835 1.019162 0.998246
0.967182 1.018718 0.998230
0.981704 1.017839 0.998221
0.998299 1.016886 0.998339
1.015606 1.016109 0.998858
0.000000 0.293766 1.063061
0.000000 0.293767 1.063061
0.000000 0.293768 1.063061
0.000000 0.293771 1.063061
0.000000 0.293781 1.063061
0.000000 0.293813 1.063061
0.000000 0.293917 1.063062
1.164092 0.328965 1.047593
1.129267 0.693573 1.035072
0.000000 0.293761 1.063061
0.000000 0.293762 1.063061
0.000000 0.293763 1.063061
0.000000 0.293766 1.063061
0.000000 0.293776 1.063061
0.000000 0.293808 1.063061
0.000000 0.293912 1.063062
1.164098 0.329129 1.047590
1.129260 0.693612 1.035070
0.000000 0.293753 1.063061
0.000000 0.293754 1.063061
0.000000 0.293755 1.063061
0.000000 0.293758 1.063061
0.000000 0.293768 1.063061
0.000000 0.293800 1.063061
0.000000 0.293904 1.063062
1.164106 0.329378 1.047584
1.129248 0.693671 1.035066
0.000000 0.293729 1.063061
0.000000 0.293729 1.063061
0.000000 0.293730 1.063061
0.000000 0.293734 1.063061
0.000000 0.293743 1.063061
0.000000 0.293776 1.063061
0.000000 0.293879 1.063062
1.164134 0.330165 1.047566
1.129213 0.693857 1.035056
0.000000 0.293650 1.063060
0.000000 0.293650 1.063060
0.000000 0.293651 1.063060
0.000000 0.293654 1.063060
0.000000 0.293664 1.063060
0.000000 0.293697 1.063061
0.000000 0.293800 1.063061
1.164217 0.332672 1.047509
1.129099 0.694452 1.035023
0.000000 0.293396 1.063058
0.000000 0.293397 1.063058
0.000000 0.293398 1.063058
0.000000 0.293401 1.063058
0.000000 0.293411 1.063058
0.000000 0.293443 1.063058
0.000000 0.291429 1.062844
1.164439 0.340538 1.047325
1.128897 0.695515 1.034957
0.000000 0.292582 1.063051
0.000000 0.292582 1.063051
0.000000 0.292583 1.063051
0.000000 0.292586 1.063051
0.000000 0.292597 1.063051
0.000000 0.292629 1.063051
1.018510 0.000000 1.053681
1.164741 0.358889 1.046870
1.128564 0.697304 1.034823
0.000000 1.016376 1.020209
0.000000 1.016379 1.020208
0.000000 1.016384 1.020208
0.000000 1.016402 1.020205
0.000000 1.016456 1.020198
0.000000 1.016629 1.020176
0.904750 0.989285 1.017676
1.002372 0.985610 1.017019
1.024478 0.990186 1.016548
0.900785 1.020774 1.014833
0.901482 1.020736 1.014830
0.902530 1.020677 1.014825
0.905723 1.020497 1.014811
0.914881 1.019978 1.014769
0.936342 1.018733 1.014671
0.968589 1.016807 1.014524
0.994874 1.015272 1.014425
1.014431 1.014432 1.014431
