luts/logc3_ei800_to_acescg.cube
LUT_3D_SIZE 5
-0.017290 -0.017290 -0.017290
0.039557 -0.014456 -0.016867
0.495677 0.008283 -0.013473
5.177862 0.241708 0.021370
53.241627 2.637869 0.379039
-0.010495 0.052396 -0.021207
0.046352 0.055230 -0.020784
0.502472 0.077969 -0.017390
5.184658 0.311394 0.017453
53.248425 2.707555 0.375122
0.044025 0.611526 -0.052630
0.100872 0.614360 -0.052207
0.556992 0.637100 -0.048813
5.239177 0.870524 -0.013970
53.302944 3.266686 0.343699
0.603686 6.351138 -0.375197
0.660533 6.353971 -0.374774
1.116654 6.376711 -0.371380
5.798839 6.610136 -0.336537
53.862602 9.006297 0.021132
6.348744 65.269638 -3.686426
6.405591 65.272469 -3.686003
6.861712 65.295212 -3.682609
11.543897 65.528633 -3.647766
59.607662 67.924797 -3.290097
-0.022123 -0.031001 0.045013
0.034724 -0.028167 0.045436
0.490845 -0.005427 0.048830
5.173029 0.227997 0.083673
53.236797 2.624159 0.441342
-0.015328 0.038685 0.041096
0.041519 0.041519 0.041519
0.497640 0.064259 0.044914
5.179825 0.297684 0.079756
53.243595 2.693845 0.437425
0.039192 0.597816 0.009673
0.096039 0.600650 0.010096
0.552160 0.623389 0.013490
5.234344 0.856814 0.048333
53.298115 3.252975 0.406002
0.598853 6.337428 -0.312894
0.655701 6.340261 -0.312471
1.111821 6.363001 -0.309077
5.794006 6.596426 -0.274234
53.857773 8.992586 0.083435
6.343911 65.255928 -3.624123
6.400759 65.258759 -3.623700
6.856879 65.281502 -3.620306
11.539063 65.514923 -3.585463
59.602833 67.911087 -3.227794
-0.060899 -0.141006 0.544906
-0.004051 -0.138172 0.545330
0.452069 -0.115433 0.548724
5.134254 0.117992 0.583566
53.198021 2.514153 0.941236
-0.054104 -0.071320 0.540990
0.002744 -0.068486 0.541413
0.458864 -0.045746 0.544807
5.141049 0.187678 0.579650
53.204819 2.583840 0.937319
0.000416 0.487811 0.509567
0.057264 0.490645 0.509990
0.513384 0.513384 0.513384
5.195569 0.746809 0.548227
53.259338 3.142970 0.905896
0.560077 6.227422 0.187000
0.616925 6.230256 0.187423
1.073045 6.252995 0.190817
5.755230 6.486420 0.225660
53.818996 8.882582 0.583329
6.305136 65.145927 -3.124229
6.361983 65.148758 -3.123806
6.818104 65.171501 -3.120412
11.500288 65.404922 -3.085569
59.564056 67.801086 -2.727900
-0.458939 -1.270236 5.676437
-0.402091 -1.267402 5.676860
0.054029 -1.244663 5.680254
4.736214 -1.011238 5.715097
52.799980 1.384923 6.072766
-0.452144 -1.200550 5.672521
-0.395296 -1.197716 5.672944
0.060824 -1.174976 5.676338
4.743009 -0.941552 5.711181
52.806778 1.454610 6.068850
-0.397624 -0.641419 5.641097
-0.340776 -0.638585 5.641521
0.115344 -0.615846 5.644915
4.797529 -0.382421 5.679757
52.861298 2.013740 6.037426
0.162037 5.098192 5.318530
0.218885 5.101027 5.318953
0.675005 5.123766 5.322348
5.357190 5.357190 5.357190
53.420956 7.753351 5.714859
5.907095 64.016693 2.007301
5.963943 64.019524 2.007724
6.420063 64.042267 2.011118
11.102248 64.275688 2.045961
59.166016 66.671852 2.403630
-4.544917 -12.862056 58.352840
-4.488069 -12.859221 58.353264
-4.031949 -12.836482 58.356659
0.650236 -12.603058 58.391502
48.714001 -10.206897 58.749172
-4.538122 -12.792370 58.348927
-4.481274 -12.789536 58.349346
-4.025154 -12.766796 58.352741
0.657031 -12.533372 58.387585
48.720798 -10.137211 58.745255
-4.483602 -12.233239 58.317501
-4.426754 -12.230405 58.317924
-3.970634 -12.207665 58.321320
0.711551 -11.974241 58.356163
48.775318 -9.578079 58.713829
-3.923941 -6.493628 57.994934
-3.867093 -6.490794 57.995358
-3.410973 -6.468054 57.998753
1.271212 -6.234630 58.033596
49.334976 -3.838469 58.391262
1.821117 52.424873 54.683704
1.877965 52.427704 54.684128
2.334085 52.450447 54.687523
7.016270 52.683868 54.722366
55.080036 55.080032 55.080036
