luts/logc3_ei800_to_acescg.cube
LUT_3D_SIZE 33
-0.017290 -0.017290 -0.017290
-0.011663 -0.017010 -0.017249
-0.006035 -0.016729 -0.017207
-0.000408 -0.016449 -0.017165
0.005220 -0.016168 -0.017123
0.010885 -0.015886 -0.017081
0.017831 -0.015540 -0.017029
0.027124 -0.015076 -0.016960
0.039557 -0.014456 -0.016867
0.056191 -0.013627 -0.016744
0.078446 -0.012518 -0.016578
0.108220 -0.011033 -0.016356
0.148055 -0.009047 -0.016060
0.201350 -0.006390 -0.015663
0.272653 -0.002836 -0.015133
0.368049 0.001920 -0.014423
0.495677 0.008283 -0.013473
0.666431 0.016796 -0.012203
0.894881 0.028185 -0.010503
1.200523 0.043422 -0.008228
1.609438 0.063808 -0.005185
2.156523 0.091082 -0.001114
2.888463 0.127572 0.004333
3.867721 0.176392 0.011620
5.177862 0.241708 0.021370
6.930692 0.329093 0.034413
9.275786 0.446005 0.051864
12.413273 0.602420 0.075212
16.610888 0.811687 0.106449
22.226841 1.091664 0.148240
29.740383 1.466243 0.204153
39.792694 1.967389 0.278958
53.241627 2.637869 0.379039
-0.016618 -0.010392 -0.017678
-0.010990 -0.010111 -0.017636
-0.005363 -0.009831 -0.017594
0.000265 -0.009550 -0.017553
0.005893 -0.009270 -0.017511
0.011558 -0.008987 -0.017469
0.018504 -0.008641 -0.017417
0.027797 -0.008178 -0.017348
0.040230 -0.007558 -0.017255
0.056864 -0.006729 -0.017131
0.079119 -0.005619 -0.016966
0.108893 -0.004135 -0.016744
0.148728 -0.002149 -0.016448
0.202023 0.000508 -0.016051
0.273326 0.004063 -0.015521
0.368721 0.008819 -0.014811
0.496350 0.015182 -0.013861
0.667104 0.023694 -0.012590
0.895554 0.035083 -0.010890
1.201195 0.050321 -0.008616
1.610111 0.070707 -0.005573
2.157195 0.097981 -0.001502
2.889136 0.134471 0.003945
3.868393 0.183291 0.011232
5.178535 0.248606 0.020982
6.931365 0.335991 0.034026
9.276460 0.452903 0.051477
12.413946 0.609319 0.074824
16.611559 0.818586 0.106061
22.227512 1.098563 0.147853
29.741055 1.473141 0.203765
39.793369 1.974287 0.278570
53.242302 2.644768 0.378651
-0.015945 -0.003493 -0.018066
-0.010317 -0.003213 -0.018024
-0.004690 -0.002932 -0.017982
0.000938 -0.002652 -0.017940
0.006565 -0.002371 -0.017898
0.012230 -0.002089 -0.017856
0.019176 -0.001742 -0.017805
0.028469 -0.001279 -0.017735
0.040903 -0.000659 -0.017643
0.057537 0.000170 -0.017519
0.079791 0.001280 -0.017353
0.109566 0.002764 -0.017132
0.149401 0.004750 -0.016835
0.202696 0.007407 -0.016439
0.273998 0.010962 -0.015908
0.369394 0.015717 -0.015198
0.497023 0.022080 -0.014249
0.667776 0.030593 -0.012978
0.896226 0.041982 -0.011278
1.201868 0.057219 -0.009003
1.610784 0.077605 -0.005961
2.157868 0.104880 -0.001889
2.889809 0.141370 0.003557
3.869066 0.190189 0.010845
5.179208 0.255505 0.020594
6.932037 0.342890 0.033638
9.277132 0.459802 0.051089
12.414618 0.616217 0.074437
16.612232 0.825485 0.105674
22.228186 1.105461 0.147465
29.741728 1.480040 0.203377
39.794041 1.981186 0.278182
53.242973 2.651666 0.378263
-0.015272 0.003405 -0.018454
-0.009645 0.003686 -0.018412
-0.004017 0.003966 -0.018370
0.001610 0.004247 -0.018328
0.007238 0.004528 -0.018286
0.012903 0.004810 -0.018244
0.019849 0.005156 -0.018192
0.029142 0.005620 -0.018123
0.041575 0.006239 -0.018031
0.058209 0.007069 -0.017907
0.080464 0.008178 -0.017741
0.110238 0.009663 -0.017520
0.150073 0.011648 -0.017223
0.203368 0.014305 -0.016827
0.274671 0.017860 -0.016296
0.370067 0.022616 -0.015586
0.497695 0.028979 -0.014636
0.668449 0.037491 -0.013366
0.896899 0.048881 -0.011666
1.202541 0.064118 -0.009391
1.611456 0.084504 -0.006348
2.158541 0.111778 -0.002277
2.890481 0.148268 0.003170
3.869739 0.197088 0.010457
5.179880 0.262403 0.020206
6.932710 0.349789 0.033250
9.277804 0.466701 0.050701
12.415291 0.623116 0.074049
16.612906 0.832383 0.105286
22.228859 1.112360 0.147077
29.742401 1.486938 0.202990
39.794712 1.988085 0.277794
53.243645 2.658565 0.377875
-0.014600 0.010304 -0.018841
-0.008972 0.010584 -0.018799
-0.003344 0.010865 -0.018758
0.002283 0.011146 -0.018716
0.007911 0.011426 -0.018674
0.013576 0.011709 -0.018632
0.020522 0.012055 -0.018580
0.029815 0.012518 -0.018511
0.042248 0.013138 -0.018418
0.058882 0.013967 -0.018294
0.081137 0.015077 -0.018129
0.110911 0.016561 -0.017907
0.150746 0.018547 -0.017611
0.204041 0.021204 -0.017214
0.275344 0.024759 -0.016684
0.370739 0.029515 -0.015974
0.498368 0.035877 -0.015024
0.669122 0.044390 -0.013753
0.897572 0.055779 -0.012053
1.203213 0.071017 -0.009779
1.612129 0.091403 -0.006736
2.159213 0.118677 -0.002665
2.891154 0.155167 0.002782
3.870411 0.203987 0.010069
5.180553 0.269302 0.019819
6.933383 0.356687 0.032862
9.278478 0.473599 0.050314
12.415964 0.630015 0.073661
16.613577 0.839282 0.104898
22.229530 1.119259 0.146690
29.743073 1.493837 0.202602
39.795387 1.994983 0.277407
53.244320 2.665463 0.377488
-0.013923 0.017248 -0.019232
-0.008295 0.017529 -0.019190
-0.002667 0.017809 -0.019148
0.002960 0.018090 -0.019106
0.008588 0.018370 -0.019064
0.014253 0.018653 -0.019022
0.021199 0.018999 -0.018970
0.030492 0.019462 -0.018901
0.042925 0.020082 -0.018809
0.059559 0.020911 -0.018685
0.081814 0.022021 -0.018519
0.111588 0.023505 -0.018298
0.151423 0.025491 -0.018001
0.204718 0.028148 -0.017605
0.276021 0.031703 -0.017074
0.371416 0.036459 -0.016364
0.499045 0.042822 -0.015414
0.669799 0.051334 -0.014144
0.898249 0.062723 -0.012444
1.203891 0.077961 -0.010169
1.612806 0.098347 -0.007126
2.159890 0.125621 -0.003055
2.891831 0.162111 0.002392
3.871089 0.210931 0.009679
5.181230 0.276246 0.019428
6.934060 0.363631 0.032472
9.279155 0.480543 0.049923
12.416641 0.636959 0.073271
16.614254 0.846226 0.104508
22.230207 1.126203 0.146299
29.743750 1.500781 0.202212
39.796062 2.001927 0.277017
53.244995 2.672408 0.377097
-0.013092 0.025763 -0.019710
-0.007465 0.026043 -0.019668
-0.001837 0.026324 -0.019626
0.003791 0.026605 -0.019584
0.009418 0.026885 -0.019543
0.015083 0.027168 -0.019500
0.022029 0.027514 -0.019449
0.031322 0.027977 -0.019380
0.043755 0.028597 -0.019287
0.060389 0.029426 -0.019163
0.082644 0.030536 -0.018998
0.112419 0.032020 -0.018776
0.152253 0.034006 -0.018480
0.205548 0.036663 -0.018083
0.276851 0.040218 -0.017552
0.372247 0.044973 -0.016843
0.499876 0.051336 -0.015893
0.670629 0.059849 -0.014622
0.899079 0.071238 -0.012922
1.204721 0.086475 -0.010648
1.613636 0.106861 -0.007605
2.160721 0.134136 -0.003534
2.892661 0.170626 0.001913
3.871919 0.219445 0.009200
5.182060 0.284761 0.018950
6.934890 0.372146 0.031994
9.279984 0.489058 0.049445
12.417471 0.645474 0.072793
16.615086 0.854741 0.104029
22.231039 1.134717 0.145821
29.744581 1.509296 0.201733
39.796894 2.010442 0.276538
53.245827 2.680922 0.376619
-0.011982 0.037155 -0.020350
-0.006354 0.037435 -0.020308
-0.000726 0.037716 -0.020267
0.004901 0.037996 -0.020225
0.010529 0.038277 -0.020183
0.016194 0.038559 -0.020141
0.023140 0.038906 -0.020089
0.032433 0.039369 -0.020020
0.044866 0.039989 -0.019927
0.061500 0.040818 -0.019803
0.083755 0.041928 -0.019638
0.113529 0.043412 -0.019416
0.153364 0.045398 -0.019120
0.206659 0.048055 -0.018723
0.277962 0.051609 -0.018193
0.373357 0.056365 -0.017483
0.500986 0.062728 -0.016533
0.671740 0.071241 -0.015262
0.900190 0.082630 -0.013562
1.205832 0.097867 -0.011288
1.614747 0.118253 -0.008245
2.161832 0.145528 -0.004174
2.893772 0.182018 0.001273
3.873030 0.230837 0.008560
5.183171 0.296153 0.018310
6.936001 0.383538 0.031353
9.281096 0.500450 0.048805
12.418582 0.656865 0.072152
16.616196 0.866133 0.103389
22.232149 1.146109 0.145181
29.745691 1.520688 0.201093
39.798004 2.021834 0.275898
53.246937 2.692314 0.375979
-0.010495 0.052396 -0.021207
-0.004868 0.052676 -0.021165
0.000760 0.052957 -0.021123
0.006387 0.053237 -0.021081
0.012015 0.053518 -0.021039
0.017680 0.053800 -0.020997
0.024626 0.054147 -0.020946
0.033919 0.054610 -0.020876
0.046352 0.055230 -0.020784
0.062986 0.056059 -0.020660
0.085241 0.057169 -0.020494
0.115015 0.058653 -0.020273
0.154850 0.060639 -0.019976
0.208145 0.063296 -0.019580
0.279448 0.066850 -0.019049
0.374844 0.071606 -0.018339
0.502472 0.077969 -0.017390
0.673226 0.086482 -0.016119
0.901676 0.097871 -0.014419
1.207318 0.113108 -0.012144
1.616233 0.133494 -0.009101
2.163318 0.160769 -0.005030
2.895258 0.197259 0.000416
3.874516 0.246078 0.007704
5.184658 0.311394 0.017453
6.937487 0.398779 0.030497
9.282581 0.515691 0.047948
12.420068 0.672107 0.071296
16.617682 0.881374 0.102533
22.233635 1.161350 0.144324
29.747177 1.535929 0.200236
39.799492 2.037075 0.275041
53.248425 2.707555 0.375122
-0.008507 0.072786 -0.022353
-0.002880 0.073067 -0.022311
0.002748 0.073348 -0.022269
0.008376 0.073628 -0.022227
0.014003 0.073909 -0.022185
0.019668 0.074191 -0.022143
0.026614 0.074537 -0.022091
0.035907 0.075001 -0.022022
0.048340 0.075621 -0.021930
0.064975 0.076450 -0.021806
0.087229 0.077559 -0.021640
0.117004 0.079044 -0.021419
0.156839 0.081030 -0.021122
0.210134 0.083687 -0.020726
0.281436 0.087241 -0.020195
0.376832 0.091997 -0.019485
0.504461 0.098360 -0.018536
0.675214 0.106873 -0.017265
0.903664 0.118262 -0.015565
1.209306 0.133499 -0.013290
1.618222 0.153885 -0.010247
2.165306 0.181159 -0.006176
2.897246 0.217649 -0.000730
3.876504 0.266469 0.006558
5.186646 0.331785 0.016307
6.939475 0.419170 0.029351
9.284570 0.536082 0.046802
12.422056 0.692497 0.070150
16.619671 0.901764 0.101387
22.235624 1.181741 0.143178
29.749166 1.556320 0.199090
39.801479 2.057466 0.273895
53.250412 2.727946 0.373976
-0.005847 0.100067 -0.023886
-0.000219 0.100348 -0.023844
0.005408 0.100628 -0.023802
0.011036 0.100909 -0.023760
0.016664 0.101189 -0.023718
0.022328 0.101472 -0.023676
0.029274 0.101818 -0.023625
0.038567 0.102281 -0.023555
0.051001 0.102901 -0.023463
0.067635 0.103731 -0.023339
0.089889 0.104840 -0.023174
0.119664 0.106324 -0.022952
0.159499 0.108310 -0.022656
0.212794 0.110967 -0.022259
0.284096 0.114522 -0.021728
0.379492 0.119278 -0.021018
0.507121 0.125641 -0.020069
0.677874 0.134153 -0.018798
0.906325 0.145542 -0.017098
1.211966 0.160780 -0.014824
1.620882 0.181166 -0.011781
2.167966 0.208440 -0.007709
2.899907 0.244930 -0.002263
3.879164 0.293750 0.005025
5.189306 0.359065 0.014774
6.942135 0.446451 0.027818
9.287230 0.563362 0.045269
12.424716 0.719778 0.068617
16.622330 0.929045 0.099853
22.238283 1.209022 0.141645
29.751825 1.583600 0.197557
39.804138 2.084746 0.272362
53.253071 2.755227 0.372443
-0.002288 0.136566 -0.025937
0.003339 0.136846 -0.025895
0.008967 0.137127 -0.025853
0.014595 0.137408 -0.025812
0.020222 0.137688 -0.025770
0.025887 0.137971 -0.025728
0.032833 0.138317 -0.025676
0.042126 0.138780 -0.025607
0.054560 0.139400 -0.025514
0.071194 0.140229 -0.025390
0.093448 0.141339 -0.025225
0.123223 0.142823 -0.025003
0.163058 0.144809 -0.024707
0.216353 0.147466 -0.024310
0.287655 0.151021 -0.023780
0.383051 0.155777 -0.023070
0.510680 0.162139 -0.022120
0.681433 0.170652 -0.020849
0.909883 0.182041 -0.019149
1.215525 0.197279 -0.016875
1.624441 0.217665 -0.013832
2.171525 0.244939 -0.009761
2.903466 0.281429 -0.004314
3.882723 0.330249 0.002973
5.192865 0.395564 0.012723
6.945694 0.482949 0.025767
9.290789 0.599861 0.043218
12.428275 0.756277 0.066565
16.625889 0.965544 0.097802
22.241842 1.245520 0.139594
29.755384 1.620099 0.195506
39.807697 2.121245 0.270311
53.256630 2.791725 0.370392
0.002473 0.185397 -0.028682
0.008101 0.185678 -0.028640
0.013729 0.185958 -0.028598
0.019356 0.186239 -0.028556
0.024984 0.186519 -0.028514
0.030649 0.186802 -0.028472
0.037595 0.187148 -0.028420
0.046888 0.187611 -0.028351
0.059321 0.188231 -0.028259
0.075955 0.189061 -0.028135
0.098210 0.190170 -0.027969
0.127984 0.191654 -0.027748
0.167819 0.193640 -0.027451
0.221114 0.196297 -0.027055
0.292417 0.199852 -0.026524
0.387812 0.204608 -0.025814
0.515441 0.210971 -0.024864
0.686195 0.219483 -0.023594
0.914645 0.230872 -0.021894
1.220286 0.246110 -0.019619
1.629202 0.266496 -0.016576
2.176286 0.293770 -0.012505
2.908227 0.330260 -0.007058
3.887485 0.379080 0.000229
5.197626 0.444395 0.009978
6.950456 0.531780 0.023022
9.295550 0.648692 0.040473
12.433037 0.805108 0.063821
16.630651 1.014375 0.095058
22.246605 1.294352 0.136849
29.760147 1.668930 0.192762
39.812458 2.170076 0.267567
53.261391 2.840557 0.367647
0.008844 0.250728 -0.032353
0.014471 0.251009 -0.032311
0.020099 0.251289 -0.032269
0.025727 0.251570 -0.032228
0.031354 0.251850 -0.032186
0.037019 0.252133 -0.032144
0.043965 0.252479 -0.032092
0.053258 0.252942 -0.032023
0.065691 0.253562 -0.031930
0.082325 0.254392 -0.031806
0.104580 0.255501 -0.031641
0.134355 0.256985 -0.031419
0.174190 0.258971 -0.031123
0.227484 0.261628 -0.030726
0.298787 0.265183 -0.030196
0.394183 0.269939 -0.029486
0.521812 0.276302 -0.028536
0.692565 0.284814 -0.027265
0.921015 0.296203 -0.025565
1.226657 0.311441 -0.023291
1.635572 0.331827 -0.020248
2.182657 0.359101 -0.016177
2.914597 0.395591 -0.010730
3.893855 0.444411 -0.003443
5.203997 0.509726 0.006307
6.956826 0.597112 0.019351
9.301921 0.714023 0.036802
12.439407 0.870439 0.060150
16.637020 1.079706 0.091386
22.252974 1.359683 0.133178
29.766516 1.734261 0.189090
39.818829 2.235407 0.263895
53.267761 2.905888 0.363976
0.017366 0.338134 -0.037265
0.022994 0.338415 -0.037224
0.028622 0.338695 -0.037182
0.034249 0.338976 -0.037140
0.039877 0.339256 -0.037098
0.045542 0.339539 -0.037056
0.052488 0.339885 -0.037004
0.061781 0.340348 -0.036935
0.074214 0.340968 -0.036842
0.090848 0.341797 -0.036719
0.113103 0.342907 -0.036553
0.142877 0.344391 -0.036331
0.182712 0.346377 -0.036035
0.236007 0.349034 -0.035638
0.307310 0.352589 -0.035108
0.402705 0.357345 -0.034398
0.530334 0.363707 -0.033448
0.701088 0.372220 -0.032177
0.929538 0.383609 -0.030477
1.235180 0.398847 -0.028203
1.644095 0.419233 -0.025160
2.191180 0.446507 -0.021089
2.923120 0.482997 -0.015642
3.902378 0.531817 -0.008355
5.212519 0.597132 0.001395
6.965349 0.684517 0.014438
9.310444 0.801429 0.031890
12.447930 0.957845 0.055237
16.645544 1.167112 0.086474
22.261497 1.447089 0.128265
29.775040 1.821667 0.184178
39.827351 2.322813 0.258983
53.276283 2.993294 0.359064
0.028769 0.455074 -0.043837
0.034397 0.455354 -0.043796
0.040024 0.455635 -0.043754
0.045652 0.455915 -0.043712
0.051280 0.456196 -0.043670
0.056945 0.456478 -0.043628
0.063891 0.456825 -0.043576
0.073184 0.457288 -0.043507
0.085617 0.457908 -0.043414
0.102251 0.458737 -0.043291
0.124506 0.459846 -0.043125
0.154280 0.461331 -0.042903
0.194115 0.463317 -0.042607
0.247410 0.465974 -0.042210
0.318713 0.469528 -0.041680
0.414108 0.474284 -0.040970
0.541737 0.480647 -0.040020
0.712491 0.489160 -0.038749
0.940941 0.500549 -0.037049
1.246582 0.515786 -0.034775
1.655498 0.536172 -0.031732
2.202582 0.563446 -0.027661
2.934523 0.599936 -0.022214
3.913780 0.648756 -0.014927
5.223922 0.714072 -0.005177
6.976751 0.801457 0.007866
9.321846 0.918369 0.025317
12.459332 1.074785 0.048665
16.656946 1.284052 0.079902
22.272900 1.564028 0.121693
29.786442 1.938607 0.177606
39.838757 2.439753 0.252411
53.287689 3.110233 0.352492
0.044025 0.611526 -0.052630
0.049652 0.611807 -0.052588
0.055280 0.612087 -0.052546
0.060907 0.612368 -0.052504
0.066535 0.612649 -0.052463
0.072200 0.612931 -0.052420
0.079146 0.613277 -0.052369
0.088439 0.613741 -0.052300
0.100872 0.614360 -0.052207
0.117506 0.615190 -0.052083
0.139761 0.616299 -0.051918
0.169535 0.617783 -0.051696
0.209370 0.619769 -0.051400
0.262665 0.622426 -0.051003
0.333968 0.625981 -0.050472
0.429364 0.630737 -0.049763
0.556992 0.637100 -0.048813
0.727746 0.645612 -0.047542
0.956196 0.657001 -0.045842
1.261838 0.672239 -0.043568
1.670753 0.692625 -0.040525
2.217838 0.719899 -0.036454
2.949778 0.756389 -0.031007
3.929036 0.805209 -0.023720
5.239177 0.870524 -0.013970
6.992007 0.957910 -0.000926
9.337102 1.074822 0.016525
12.474588 1.231237 0.039873
16.672201 1.440504 0.071109
22.288155 1.720481 0.112901
29.801697 2.095059 0.168813
39.854012 2.596205 0.243618
53.302944 3.266686 0.343699
0.064435 0.820843 -0.064394
0.070062 0.821124 -0.064352
0.075690 0.821404 -0.064310
0.081318 0.821685 -0.064268
0.086945 0.821965 -0.064226
0.092610 0.822248 -0.064184
0.099556 0.822594 -0.064132
0.108849 0.823057 -0.064063
0.121282 0.823677 -0.063971
0.137917 0.824506 -0.063847
0.160171 0.825616 -0.063681
0.189946 0.827100 -0.063460
0.229781 0.829086 -0.063163
0.283075 0.831743 -0.062767
0.354378 0.835298 -0.062236
0.449774 0.840054 -0.061526
0.577403 0.846416 -0.060576
0.748156 0.854929 -0.059306
0.976606 0.866318 -0.057606
1.282248 0.881556 -0.055331
1.691164 0.901942 -0.052288
2.238248 0.929216 -0.048217
2.970188 0.965706 -0.042770
3.949446 1.014526 -0.035483
5.259588 1.079841 -0.025734
7.012417 1.167226 -0.012690
9.357512 1.284138 0.004761
12.494998 1.440554 0.028109
16.692612 1.649821 0.059346
22.308565 1.929798 0.101137
29.822107 2.304376 0.157050
39.874420 2.805522 0.231854
53.323353 3.476002 0.331935
0.091741 1.100886 -0.080132
0.097369 1.101167 -0.080090
0.102997 1.101447 -0.080048
0.108624 1.101728 -0.080007
0.114252 1.102009 -0.079965
0.119917 1.102291 -0.079923
0.126863 1.102637 -0.079871
0.136156 1.103101 -0.079802
0.148589 1.103720 -0.079709
0.165223 1.104550 -0.079585
0.187478 1.105659 -0.079420
0.217252 1.107144 -0.079198
0.257087 1.109130 -0.078902
0.310382 1.111786 -0.078505
0.381685 1.115341 -0.077975
0.477080 1.120097 -0.077265
0.604709 1.126460 -0.076315
0.775463 1.134972 -0.075044
1.003913 1.146362 -0.073344
1.309555 1.161599 -0.071070
1.718470 1.181985 -0.068027
2.265554 1.209259 -0.063956
2.997495 1.245749 -0.058509
3.976753 1.294569 -0.051222
5.286894 1.359885 -0.041472
7.039724 1.447270 -0.028428
9.384818 1.564182 -0.010977
12.522305 1.720597 0.012370
16.719919 1.929864 0.043607
22.335873 2.209841 0.085399
29.849415 2.584419 0.141311
39.901726 3.085566 0.216116
53.350658 3.756046 0.316197
0.128275 1.475554 -0.101189
0.133902 1.475835 -0.101147
0.139530 1.476115 -0.101105
0.145158 1.476396 -0.101063
0.150785 1.476676 -0.101021
0.156450 1.476959 -0.100979
0.163396 1.477305 -0.100927
0.172689 1.477768 -0.100858
0.185122 1.478388 -0.100766
0.201756 1.479218 -0.100642
0.224011 1.480327 -0.100476
0.253786 1.481811 -0.100255
0.293621 1.483797 -0.099958
0.346915 1.486454 -0.099562
0.418218 1.490009 -0.099031
0.513614 1.494765 -0.098321
0.641243 1.501128 -0.097371
0.811996 1.509640 -0.096101
1.040446 1.521029 -0.094401
1.346088 1.536267 -0.092126
1.755003 1.556653 -0.089083
2.302088 1.583927 -0.085012
3.034028 1.620417 -0.079565
4.013286 1.669237 -0.072278
5.323428 1.734552 -0.062529
7.076257 1.821937 -0.049485
9.421351 1.938849 -0.032034
12.558838 2.095265 -0.008686
16.756453 2.304532 0.022551
22.372406 2.584509 0.064342
29.885948 2.959087 0.120255
39.938259 3.460233 0.195060
53.387192 4.130713 0.295140
0.177152 1.976819 -0.129360
0.182780 1.977100 -0.129318
0.188408 1.977381 -0.129276
0.194035 1.977661 -0.129234
0.199663 1.977942 -0.129192
0.205328 1.978224 -0.129150
0.212274 1.978570 -0.129098
0.221567 1.979034 -0.129029
0.234000 1.979653 -0.128937
0.250634 1.980483 -0.128813
0.272889 1.981592 -0.128647
0.302663 1.983077 -0.128426
0.342498 1.985063 -0.128129
0.395793 1.987720 -0.127733
0.467096 1.991274 -0.127202
0.562491 1.996030 -0.126492
0.690120 2.002393 -0.125543
0.860874 2.010906 -0.124272
1.089324 2.022295 -0.122572
1.394966 2.037532 -0.120297
1.803881 2.057918 -0.117254
2.350965 2.085192 -0.113183
3.082906 2.121682 -0.107736
4.062164 2.170502 -0.100449
5.372305 2.235818 -0.090700
7.125134 2.323203 -0.077656
9.470229 2.440115 -0.060205
12.607716 2.596530 -0.036857
16.805330 2.805797 -0.005620
22.421284 3.085774 0.036171
29.934826 3.460353 0.092083
39.987137 3.961498 0.166888
53.436069 4.631979 0.266969
0.242545 2.647458 -0.167050
0.248173 2.647738 -0.167008
0.253801 2.648019 -0.166966
0.259428 2.648299 -0.166924
0.265056 2.648580 -0.166882
0.270721 2.648863 -0.166840
0.277667 2.649209 -0.166788
0.286960 2.649672 -0.166719
0.299393 2.650292 -0.166627
0.316027 2.651121 -0.166503
0.338282 2.652231 -0.166337
0.368056 2.653715 -0.166116
0.407891 2.655701 -0.165819
0.461186 2.658358 -0.165423
0.532489 2.661913 -0.164892
0.627884 2.666668 -0.164182
0.755513 2.673031 -0.163232
0.926267 2.681544 -0.161962
1.154717 2.692933 -0.160262
1.460359 2.708170 -0.157987
1.869274 2.728556 -0.154944
2.416358 2.755831 -0.150873
3.148299 2.792321 -0.145426
4.127557 2.841141 -0.138139
5.437698 2.906456 -0.128390
7.190527 2.993841 -0.115346
9.535623 3.110753 -0.097895
12.673109 3.267169 -0.074547
16.870722 3.476436 -0.043310
22.486675 3.756412 -0.001519
30.000217 4.130991 0.054394
40.052532 4.632137 0.129198
53.501465 5.302617 0.229279
0.330034 3.544700 -0.217475
0.335662 3.544981 -0.217433
0.341289 3.545261 -0.217391
0.346917 3.545542 -0.217349
0.352545 3.545822 -0.217307
0.358210 3.546105 -0.217265
0.365156 3.546451 -0.217214
0.374449 3.546914 -0.217144
0.386882 3.547534 -0.217052
0.403516 3.548363 -0.216928
0.425771 3.549473 -0.216762
0.455545 3.550957 -0.216541
0.495380 3.552943 -0.216244
0.548675 3.555600 -0.215848
0.619978 3.559155 -0.215317
0.715373 3.563910 -0.214607
0.843002 3.570273 -0.213658
1.013756 3.578786 -0.212387
1.242206 3.590175 -0.210687
1.547847 3.605412 -0.208412
1.956763 3.625798 -0.205370
2.503847 3.653073 -0.201298
3.235788 3.689563 -0.195852
4.215045 3.738383 -0.188564
5.525187 3.803698 -0.178815
7.278017 3.891083 -0.165771
9.623111 4.007995 -0.148320
12.760597 4.164411 -0.124972
16.958212 4.373678 -0.093735
22.574165 4.653654 -0.051944
30.087708 5.028233 0.003968
40.140018 5.529379 0.078773
53.588951 6.199859 0.178854
0.447085 4.745113 -0.284938
0.452712 4.745394 -0.284896
0.458340 4.745674 -0.284855
0.463968 4.745955 -0.284813
0.469595 4.746235 -0.284771
0.475260 4.746518 -0.284729
0.482206 4.746864 -0.284677
0.491499 4.747327 -0.284608
0.503932 4.747947 -0.284515
0.520566 4.748776 -0.284392
0.542821 4.749886 -0.284226
0.572596 4.751370 -0.284004
0.612431 4.753356 -0.283708
0.665725 4.756013 -0.283311
0.737028 4.759568 -0.282781
0.832424 4.764324 -0.282071
0.960053 4.770687 -0.281121
1.130806 4.779199 -0.279850
1.359256 4.790588 -0.278150
1.664898 4.805826 -0.275876
2.073813 4.826212 -0.272833
2.620898 4.853486 -0.268762
3.352838 4.889976 -0.263315
4.332096 4.938796 -0.256028
5.642238 5.004111 -0.246278
7.395067 5.091496 -0.233235
9.740162 5.208408 -0.215783
12.877648 5.364824 -0.192436
17.075262 5.574091 -0.161199
22.691216 5.854068 -0.119407
30.204758 6.228646 -0.063495
40.257069 6.729792 0.011310
53.706001 7.400273 0.111391
0.603686 6.351138 -0.375197
0.609313 6.351418 -0.375155
0.614941 6.351698 -0.375113
0.620569 6.351979 -0.375072
0.626196 6.352260 -0.375030
0.631861 6.352542 -0.374987
0.638807 6.352889 -0.374936
0.648100 6.353352 -0.374867
0.660533 6.353971 -0.374774
0.677168 6.354801 -0.374650
0.699422 6.355910 -0.374485
0.729197 6.357395 -0.374263
0.769032 6.359381 -0.373967
0.822327 6.362038 -0.373570
0.893629 6.365592 -0.373040
0.989025 6.370348 -0.372330
1.116654 6.376711 -0.371380
1.287407 6.385223 -0.370109
1.515857 6.396613 -0.368409
1.821499 6.411850 -0.366135
2.230414 6.432236 -0.363092
2.777499 6.459510 -0.359021
3.509439 6.496000 -0.353574
4.488697 6.544820 -0.346287
5.798839 6.610136 -0.336537
7.551668 6.697521 -0.323493
9.896763 6.814433 -0.306042
13.034249 6.970848 -0.282694
17.231863 7.180115 -0.251458
22.847816 7.460092 -0.209666
30.361359 7.834671 -0.153754
40.413670 8.335817 -0.078949
53.862602 9.006297 0.021132
0.813201 8.499827 -0.495954
0.818829 8.500108 -0.495912
0.824457 8.500389 -0.495870
0.830084 8.500669 -0.495828
0.835712 8.500950 -0.495786
0.841377 8.501232 -0.495744
0.848323 8.501578 -0.495692
0.857616 8.502042 -0.495623
0.870049 8.502662 -0.495531
0.886683 8.503491 -0.495407
0.908938 8.504601 -0.495241
0.938712 8.506084 -0.495020
0.978547 8.508071 -0.494723
1.031842 8.510728 -0.494327
1.103145 8.514282 -0.493796
1.198540 8.519038 -0.493086
1.326169 8.525401 -0.492137
1.496923 8.533914 -0.490866
1.725373 8.545303 -0.489166
2.031014 8.560540 -0.486891
2.439930 8.580926 -0.483848
2.987015 8.608200 -0.479777
3.718955 8.644691 -0.474331
4.698213 8.693510 -0.467043
6.008354 8.758826 -0.457294
7.761184 8.846211 -0.444250
10.106278 8.963123 -0.426799
13.243765 9.119538 -0.403451
17.441378 9.328806 -0.372214
23.057333 9.608782 -0.330423
