luts/logc3_ei800_to_rec709_aces.cube
# LogC3 (EI800) -> Rec.709 display via ACES 1.0 SDR Video
LUT_3D_SIZE 5
DOMAIN_MIN 0 0 0
DOMAIN_MAX 1 1 1
0.000213 0.000213 0.000213
0.164602 0.000000 0.000000
0.743499 0.000000 0.000000
1.132754 0.475363 0.134783
1.056445 0.945325 0.782067
0.000000 0.182609 0.000000
0.143808 0.185037 0.000000
0.750872 0.064971 0.000000
1.121289 0.544047 0.109943
1.055948 0.946547 0.781552
0.000000 0.746909 0.000000
0.000000 0.746335 0.000000
0.691052 0.732894 0.000000
1.059161 0.795183 0.000000
1.052473 0.955072 0.777490
0.585386 1.000771 0.242421
0.624307 0.999479 0.244040
0.787832 0.992773 0.257419
0.996317 0.981930 0.377162
1.036740 0.989208 0.796237
0.968568 1.020344 0.887694
0.968964 1.020320 0.887733
0.971947 1.020134 0.888052
0.990335 1.018980 0.891288
1.020604 1.017178 0.919179
0.000000 0.000000 0.168208
0.145510 0.000000 0.168143
0.743227 0.000000 0.170563
1.134044 0.460055 0.277195
1.055940 0.945013 0.795229
0.000000 0.153064 0.153760
0.149960 0.149960 0.149960
0.744230 0.000000 0.156027
1.122438 0.532484 0.262287
1.055438 0.946243 0.794762
0.000000 0.742873 0.000000
0.000000 0.742233 0.000000
0.697158 0.728837 0.000000
1.059158 0.793273 0.126683
1.051924 0.954820 0.791106
0.591666 1.000526 0.242094
0.629469 0.999253 0.243719
0.789669 0.992639 0.257138
0.996426 0.981881 0.377118
1.036746 0.989191 0.796162
0.968628 1.020339 0.887687
0.969023 1.020315 0.887726
0.972000 1.020130 0.888045
0.990356 1.018977 0.891282
1.020607 1.017177 0.919178
0.000000 0.000000 0.715927
0.000000 0.000000 0.716169
0.750142 0.000000 0.710816
1.143378 0.271392 0.733818
1.053385 0.942605 0.863972
0.000000 0.000000 0.714015
0.000000 0.000000 0.714266
0.760561 0.000000 0.708751
1.131274 0.401497 0.729528
1.052845 0.943903 0.863695
0.000000 0.684231 0.671163
0.000000 0.684636 0.671489
0.672981 0.672981 0.672981
1.055034 0.766102 0.701865
1.049072 0.952920 0.861582
0.597852 0.999026 0.512932
0.633631 0.997810 0.513868
0.787730 0.991424 0.521617
0.991258 0.980849 0.595480
1.034413 0.988715 0.843987
0.969105 1.020300 0.887633
0.969493 1.020277 0.887673
0.972422 1.020094 0.887992
0.990530 1.018957 0.891232
1.020630 1.017166 0.919169
0.000000 0.000000 1.025387
0.000000 0.000000 1.025390
0.000000 0.000000 1.025417
1.157465 0.000000 1.009800
1.059797 0.910400 0.982158
0.000000 0.000000 1.025360
0.000000 0.000000 1.025363
0.000000 0.000000 1.025391
1.157712 0.000000 1.009766
1.058712 0.913096 0.981956
0.000000 0.000000 1.025144
0.000000 0.000000 1.025147
0.200625 0.000000 1.023028
1.158493 0.000000 1.009513
1.051584 0.930484 0.980619
0.000000 1.001776 0.973554
0.000000 0.999635 0.973359
0.622817 0.986570 0.972231
0.971358 0.971359 0.971358
1.028033 0.984537 0.975606
0.966703 1.019729 0.947831
0.967076 1.019706 0.947847
0.969889 1.019533 0.947978
0.987450 1.018452 0.949343
1.018138 1.016780 0.961214
0.000000 0.293766 1.063061
0.000000 0.293768 1.063061
0.000000 0.293781 1.063061
0.000000 0.293917 1.063062
1.129267 0.693573 1.035072
0.000000 0.293753 1.063061
0.000000 0.293755 1.063061
0.000000 0.293768 1.063061
0.000000 0.293904 1.063062
1.129248 0.693671 1.035066
0.000000 0.293650 1.063060
0.000000 0.293651 1.063060
0.000000 0.293664 1.063060
0.000000 0.293800 1.063061
1.129099 0.694452 1.035023
0.000000 0.292582 1.063051
0.000000 0.292583 1.063051
0.000000 0.292597 1.063051
1.018510 0.000000 1.053681
1.128564 0.697304 1.034823
0.900785 1.020774 1.014833
0.902530 1.020677 1.014825
0.914881 1.019978 1.014769
0.968589 1.016807 1.014524
1.014431 1.014432 1.014431
