luts/logc3_ei800_to_acescg.cube
LUT_3D_SIZE 9
-0.017290 -0.017290 -0.017290
0.005220 -0.016168 -0.017123
0.039557 -0.014456 -0.016867
0.148055 -0.009047 -0.016060
0.495677 0.008283 -0.013473
1.609438 0.063808 -0.005185
5.177862 0.241708 0.021370
16.610888 0.811687 0.106449
53.241627 2.637869 0.379039
-0.014600 0.010304 -0.018841
0.007911 0.011426 -0.018674
0.042248 0.013138 -0.018418
0.150746 0.018547 -0.017611
0.498368 0.035877 -0.015024
1.612129 0.091403 -0.006736
5.180553 0.269302 0.019819
16.613577 0.839282 0.104898
53.244320 2.665463 0.377488
-0.010495 0.052396 -0.021207
0.012015 0.053518 -0.021039
0.046352 0.055230 -0.020784
0.154850 0.060639 -0.019976
0.502472 0.077969 -0.017390
1.616233 0.133494 -0.009101
5.184658 0.311394 0.017453
16.617682 0.881374 0.102533
53.248425 2.707555 0.375122
0.002473 0.185397 -0.028682
0.024984 0.186519 -0.028514
0.059321 0.188231 -0.028259
0.167819 0.193640 -0.027451
0.515441 0.210971 -0.024864
1.629202 0.266496 -0.016576
5.197626 0.444395 0.009978
16.630651 1.014375 0.095058
53.261391 2.840557 0.367647
0.044025 0.611526 -0.052630
0.066535 0.612649 -0.052463
0.100872 0.614360 -0.052207
0.209370 0.619769 -0.051400
0.556992 0.637100 -0.048813
1.670753 0.692625 -0.040525
5.239177 0.870524 -0.013970
16.672201 1.440504 0.071109
53.302944 3.266686 0.343699
0.177152 1.976819 -0.129360
0.199663 1.977942 -0.129192
0.234000 1.979653 -0.128937
0.342498 1.985063 -0.128129
0.690120 2.002393 -0.125543
1.803881 2.057918 -0.117254
5.372305 2.235818 -0.090700
16.805330 2.805797 -0.005620
53.436069 4.631979 0.266969
0.603686 6.351138 -0.375197
0.626196 6.352260 -0.375030
0.660533 6.353971 -0.374774
0.769032 6.359381 -0.373967
1.116654 6.376711 -0.371380
2.230414 6.432236 -0.363092
5.798839 6.610136 -0.336537
17.231863 7.180115 -0.251458
53.862602 9.006297 0.021132
1.970274 20.366201 -1.162846
1.992785 20.367325 -1.162678
2.027122 20.369036 -1.162423
2.135620 20.374445 -1.161616
2.483242 20.391775 -1.159029
3.597003 20.447300 -1.150741
7.165427 20.625200 -1.124186
18.598452 21.195179 -1.039107
55.229195 23.021360 -0.766517
6.348744 65.269638 -3.686426
6.371254 65.270760 -3.686259
6.405591 65.272469 -3.686003
6.514090 65.277878 -3.685196
6.861712 65.295212 -3.682609
7.975473 65.350739 -3.674321
11.543897 65.528633 -3.647766
22.976921 66.098618 -3.562687
59.607662 67.924797 -3.290097
-0.019204 -0.022720 0.007380
0.003306 -0.021597 0.007548
0.037644 -0.019885 0.007803
0.146142 -0.014476 0.008611
0.493764 0.002854 0.011198
1.607525 0.058379 0.019486
5.175948 0.236279 0.046040
16.608974 0.806258 0.131120
53.239716 2.632440 0.403709
-0.016513 0.004875 0.005830
0.005997 0.005997 0.005997
0.040334 0.007709 0.006253
0.148832 0.013118 0.007060
0.496454 0.030448 0.009647
1.610215 0.085974 0.017935
5.178639 0.263873 0.044490
16.611664 0.833853 0.129569
53.242409 2.660034 0.402159
-0.012409 0.046967 0.003464
0.010101 0.048089 0.003632
0.044439 0.049801 0.003887
0.152937 0.055210 0.004695
0.500559 0.072540 0.007281
1.614320 0.128065 0.015569
5.182744 0.305965 0.042124
16.615768 0.875945 0.127204
53.246513 2.702126 0.399793
0.000560 0.179968 -0.004011
0.023070 0.181090 -0.003843
0.057407 0.182802 -0.003588
0.165906 0.188211 -0.002780
0.513528 0.205542 -0.000193
1.627288 0.261067 0.008095
5.195712 0.438966 0.034649
16.628738 1.008946 0.119729
53.259480 2.835128 0.392318
0.042111 0.606097 -0.027959
0.064621 0.607220 -0.027792
0.098959 0.608931 -0.027536
0.207457 0.614340 -0.026729
0.555079 0.631671 -0.024142
1.668840 0.687196 -0.015854
5.237263 0.865095 0.010701
16.670288 1.435075 0.095780
53.301033 3.261257 0.368370
0.175239 1.971390 -0.104689
0.197749 1.972513 -0.104521
0.232086 1.974224 -0.104266
0.340585 1.979634 -0.103458
0.688207 1.996964 -0.100872
1.801968 2.052489 -0.092583
5.370391 2.230389 -0.066029
16.803417 2.800368 0.019051
53.434158 4.626550 0.291640
0.601772 6.345709 -0.350526
0.624283 6.346831 -0.350359
0.658620 6.348543 -0.350103
0.767118 6.353952 -0.349296
1.114740 6.371282 -0.346709
2.228501 6.426807 -0.338421
5.796925 6.604707 -0.311866
17.229950 7.174686 -0.226787
53.860691 9.000868 0.045803
1.968361 20.360773 -1.138175
1.990871 20.361897 -1.138008
2.025208 20.363607 -1.137752
2.133707 20.369017 -1.136945
2.481329 20.386347 -1.134358
3.595090 20.441872 -1.126070
7.163513 20.619772 -1.099515
18.596539 21.189751 -1.014436
55.227283 23.015932 -0.741846
6.346830 65.264214 -3.661756
6.369340 65.265335 -3.661588
6.403677 65.267044 -3.661332
6.512176 65.272453 -3.660525
6.859798 65.289787 -3.657938
7.973559 65.345314 -3.649650
11.541983 65.523209 -3.623096
22.975008 66.093193 -3.538016
59.605751 67.919373 -3.265426
-0.022123 -0.031001 0.045013
0.000387 -0.029879 0.045180
0.034724 -0.028167 0.045436
0.143223 -0.022758 0.046243
0.490845 -0.005427 0.048830
1.604606 0.050098 0.057118
5.173029 0.227997 0.083673
16.606054 0.797977 0.168752
53.236797 2.624159 0.441342
-0.019433 -0.003406 0.043462
0.003078 -0.002284 0.043630
0.037415 -0.000572 0.043885
0.145913 0.004837 0.044692
0.493535 0.022167 0.047279
1.607296 0.077692 0.055567
5.175720 0.255592 0.082122
16.608744 0.825572 0.167201
53.239491 2.651753 0.439791
-0.015328 0.038685 0.041096
0.007182 0.039808 0.041264
0.041519 0.041519 0.041519
0.150018 0.046929 0.042327
0.497640 0.064259 0.044914
1.611401 0.119784 0.053202
5.179825 0.297684 0.079756
16.612848 0.867663 0.164836
53.243595 2.693845 0.437425
-0.002359 0.171687 0.033622
0.020151 0.172809 0.033789
0.054488 0.174521 0.034045
0.162986 0.179930 0.034852
0.510608 0.197260 0.037439
1.624369 0.252786 0.045727
5.192793 0.430685 0.072282
16.625818 1.000665 0.157361
53.256561 2.826846 0.429951
0.039192 0.597816 0.009673
0.061702 0.598938 0.009841
0.096039 0.600650 0.010096
0.204538 0.606059 0.010904
0.552160 0.623389 0.013490
1.665921 0.678915 0.021779
5.234344 0.856814 0.048333
16.667368 1.426794 0.133413
53.298115 3.252975 0.406002
0.172320 1.963109 -0.067056
0.194830 1.964231 -0.066889
0.229167 1.965943 -0.066633
0.337665 1.971352 -0.065826
0.685287 1.988683 -0.063239
1.799048 2.044208 -0.054951
5.367472 2.222107 -0.028396
16.800497 2.792087 0.056683
53.431240 4.618268 0.329273
0.598853 6.337428 -0.312894
0.621364 6.338550 -0.312726
0.655701 6.340261 -0.312471
0.764199 6.345671 -0.311663
1.111821 6.363001 -0.309077
2.225582 6.418526 -0.300788
5.794006 6.596426 -0.274234
17.227030 7.166405 -0.189154
53.857773 8.992586 0.083435
1.965442 20.352491 -1.100543
1.987952 20.353615 -1.100375
2.022290 20.355326 -1.100120
2.130788 20.360735 -1.099312
2.478410 20.378065 -1.096725
3.592171 20.433590 -1.088437
7.160594 20.611490 -1.061883
18.593618 21.181469 -0.976803
55.224365 23.007650 -0.704214
6.343911 65.255928 -3.624123
6.366422 65.257050 -3.623955
6.400759 65.258759 -3.623700
6.509257 65.264168 -3.622893
6.856879 65.281502 -3.620306
7.970640 65.337029 -3.612018
11.539063 65.514923 -3.585463
22.972088 66.084908 -3.500384
59.602833 67.911087 -3.227794
-0.031347 -0.057168 0.163924
-0.008836 -0.056046 0.164091
0.025501 -0.054334 0.164347
0.133999 -0.048925 0.165154
0.481621 -0.031595 0.167741
1.595382 0.023931 0.176029
5.163805 0.201830 0.202584
16.596830 0.771810 0.287663
53.227573 2.597991 0.560253
-0.028656 -0.029574 0.162373
-0.006146 -0.028451 0.162540
0.028192 -0.026739 0.162796
0.136690 -0.021330 0.163603
0.484312 -0.004000 0.166190
1.598073 0.051525 0.174478
5.166496 0.229425 0.201033
16.599520 0.799404 0.286112
53.230267 2.625586 0.558702
-0.024552 0.012518 0.160007
-0.002041 0.013640 0.160175
0.032296 0.015352 0.160430
0.140794 0.020761 0.161238
0.488416 0.038092 0.163824
1.602177 0.093617 0.172113
5.170601 0.271516 0.198667
16.603624 0.841496 0.283747
53.234371 2.667678 0.556336
-0.011583 0.145520 0.152532
0.010928 0.146642 0.152700
0.045265 0.148354 0.152955
0.153763 0.153763 0.153763
0.501385 0.171093 0.156350
1.615146 0.226618 0.164638
5.183569 0.404518 0.191192
16.616594 0.974498 0.276272
53.247337 2.800679 0.548862
0.029968 0.571649 0.128584
0.052479 0.572771 0.128751
0.086816 0.574483 0.129007
0.195314 0.579892 0.129814
0.542936 0.597222 0.132401
1.656697 0.652748 0.140689
5.225121 0.830647 0.167244
16.658144 1.400627 0.252323
53.288891 3.226808 0.524913
0.163096 1.936942 0.051854
0.185607 1.938064 0.052022
0.219944 1.939776 0.052277
0.328442 1.945185 0.053085
0.676064 1.962515 0.055671
1.789825 2.018041 0.063960
5.358248 2.195940 0.090514
16.791273 2.765920 0.175594
53.422016 4.592101 0.448183
0.589629 6.311260 -0.193983
0.612140 6.312382 -0.193816
0.646477 6.314094 -0.193560
0.754975 6.319503 -0.192753
1.102597 6.336833 -0.190166
2.216358 6.392359 -0.181878
5.784782 6.570258 -0.155323
17.217806 7.140238 -0.070244
53.848549 8.966419 0.202346
1.956218 20.326324 -0.981632
1.978729 20.327448 -0.981464
2.013066 20.329159 -0.981209
2.121564 20.334568 -0.980402
2.469186 20.351898 -0.977815
3.582947 20.407423 -0.969527
7.151371 20.585323 -0.942972
18.584394 21.155302 -0.857893
55.215141 22.981483 -0.585303
6.334687 65.229767 -3.505213
6.357198 65.230888 -3.505045
6.391535 65.232597 -3.504789
6.500033 65.238007 -3.503982
6.847655 65.255341 -3.501395
7.961416 65.310867 -3.493107
11.529840 65.488762 -3.466552
22.962864 66.058746 -3.381473
59.593609 67.884926 -3.108883
-0.060899 -0.141006 0.544906
-0.038388 -0.139884 0.545074
-0.004051 -0.138172 0.545330
0.104447 -0.132763 0.546137
0.452069 -0.115433 0.548724
1.565830 -0.059907 0.557012
5.134254 0.117992 0.583566
16.567280 0.687972 0.668646
53.198021 2.514153 0.941236
-0.058208 -0.113412 0.543356
-0.035697 -0.112289 0.543523
-0.001360 -0.110577 0.543779
0.107138 -0.105168 0.544586
0.454760 -0.087838 0.547173
1.568521 -0.032313 0.555461
5.136945 0.145587 0.582016
16.569969 0.715566 0.667095
53.200714 2.541748 0.939685
-0.054104 -0.071320 0.540990
-0.031593 -0.070198 0.541158
0.002744 -0.068486 0.541413
0.111242 -0.063077 0.542221
0.458864 -0.045746 0.544807
1.572625 0.009779 0.553096
5.141049 0.187678 0.579650
16.574074 0.757658 0.664730
53.204819 2.583840 0.937319
-0.041135 0.061682 0.533515
-0.018624 0.062804 0.533683
0.015713 0.064516 0.533938
0.124211 0.069925 0.534746
0.471833 0.087255 0.537333
1.585594 0.142780 0.545621
5.154018 0.320680 0.572175
16.587044 0.890660 0.657255
53.217785 2.716841 0.929844
0.000416 0.487811 0.509567
0.022927 0.488933 0.509734
0.057264 0.490645 0.509990
0.165762 0.496054 0.510797
0.513384 0.513384 0.513384
1.627145 0.568909 0.521672
5.195569 0.746809 0.548227
16.628593 1.316789 0.633306
53.259338 3.142970 0.905896
0.133544 1.853104 0.432837
0.156055 1.854226 0.433005
0.190392 1.855938 0.433260
0.298890 1.861347 0.434068
0.646512 1.878677 0.436655
1.760273 1.934203 0.444943
5.328697 2.112102 0.471497
16.761723 2.682082 0.556577
53.392464 4.508263 0.829166
0.560077 6.227422 0.187000
0.582588 6.228544 0.187167
0.616925 6.230256 0.187423
0.725423 6.235665 0.188230
1.073045 6.252995 0.190817
2.186806 6.308521 0.199105
5.755230 6.486420 0.225660
17.188255 7.056400 0.310739
53.818996 8.882582 0.583329
1.926666 20.242487 -0.600649
1.949177 20.243610 -0.600481
1.983514 20.245321 -0.600226
2.092012 20.250731 -0.599419
2.439634 20.268061 -0.596832
3.553395 20.323586 -0.588544
7.121819 20.501486 -0.561989
18.554844 21.071465 -0.476910
55.185589 22.897646 -0.204320
6.305136 65.145927 -3.124229
6.327646 65.147049 -3.124062
6.361983 65.148758 -3.123806
6.470482 65.154167 -3.122999
6.818104 65.171501 -3.120412
7.931865 65.227028 -3.112124
11.500288 65.404922 -3.085569
22.933313 65.974907 -3.000490
59.564056 67.801086 -2.727900
-0.155581 -0.409618 1.765554
-0.133071 -0.408496 1.765722
-0.098734 -0.406784 1.765977
0.009765 -0.401375 1.766785
0.357387 -0.384045 1.769371
1.471147 -0.328520 1.777660
5.039571 -0.150620 1.804214
16.472597 0.419360 1.889294
53.103336 2.245541 2.161883
-0.152891 -0.382024 1.764003
-0.130380 -0.380902 1.764171
-0.096043 -0.379190 1.764426
0.012455 -0.373781 1.765234
0.360077 -0.356450 1.767821
1.473838 -0.300925 1.776109
5.042262 -0.123026 1.802663
16.475286 0.446954 1.887743
53.106030 2.273136 2.160332
-0.148786 -0.339932 1.761638
-0.126276 -0.338810 1.761805
-0.091939 -0.337098 1.762061
0.016560 -0.331689 1.762868
0.364182 -0.314359 1.765455
1.477942 -0.258833 1.773743
5.046367 -0.080934 1.800298
16.479391 0.489046 1.885377
53.110134 2.315227 2.157967
-0.135818 -0.206931 1.754163
-0.113307 -0.205808 1.754331
-0.078970 -0.204096 1.754586
0.029528 -0.198687 1.755394
0.377150 -0.181357 1.757980
1.490911 -0.125832 1.766268
5.059335 0.052068 1.792823
16.492361 0.622047 1.877903
53.123100 2.448229 2.150492
-0.094266 0.219199 1.730215
-0.071756 0.220321 1.730382
-0.037419 0.222033 1.730638
0.071080 0.227442 1.731445
0.418702 0.244772 1.734032
1.532462 0.300297 1.742320
5.100886 0.478197 1.768875
16.533911 1.048177 1.853954
53.164654 2.874358 2.126544
0.038861 1.584492 1.653485
0.061372 1.585614 1.653652
0.095709 1.587326 1.653908
0.204207 1.592735 1.654715
0.551829 1.610065 1.657302
1.665590 1.665590 1.665590
5.234014 1.843490 1.692145
16.667040 2.413470 1.777224
53.297779 4.239651 2.049814
0.465395 5.958810 1.407647
0.487905 5.959932 1.407815
0.522243 5.961644 1.408071
0.630741 5.967053 1.408878
0.978363 5.984384 1.411465
2.092124 6.039909 1.419753
5.660548 6.217808 1.446307
17.093573 6.787788 1.531387
53.724312 8.613969 1.803977
1.831983 19.973875 0.619999
1.854494 19.974998 0.620166
1.888831 19.976709 0.620422
1.997329 19.982119 0.621229
2.344952 19.999449 0.623816
3.458713 20.054974 0.632104
7.027136 20.232874 0.658659
18.460161 20.802853 0.743738
55.090904 22.629034 1.016328
6.210453 64.877312 -1.903582
6.232964 64.878433 -1.903414
6.267301 64.880142 -1.903159
6.375799 64.885551 -1.902351
6.723421 64.902885 -1.899765
7.837182 64.958412 -1.891476
11.405605 65.136307 -1.864922
22.838631 65.706291 -1.779842
59.469372 67.532471 -1.507253
-0.458939 -1.270236 5.676437
-0.436428 -1.269114 5.676604
-0.402091 -1.267402 5.676860
-0.293593 -1.261993 5.677667
0.054029 -1.244663 5.680254
1.167790 -1.189137 5.688542
4.736214 -1.011238 5.715097
16.169239 -0.441258 5.800176
52.799980 1.384923 6.072766
-0.456248 -1.242641 5.674886
-0.433738 -1.241519 5.675054
-0.399400 -1.239807 5.675309
-0.290902 -1.234398 5.676116
0.056720 -1.217068 5.678703
1.170481 -1.161543 5.686991
4.738904 -0.983643 5.713546
16.171928 -0.413664 5.798625
52.802673 1.412518 6.071215
-0.452144 -1.200550 5.672521
-0.429633 -1.199427 5.672688
-0.395296 -1.197716 5.672944
-0.286798 -1.192307 5.673751
0.060824 -1.174976 5.676338
1.174585 -1.119451 5.684626
4.743009 -0.941552 5.711181
16.176033 -0.371572 5.796260
52.806778 1.454610 6.068850
-0.439175 -1.067548 5.665046
-0.416664 -1.066426 5.665213
-0.382327 -1.064714 5.665469
-0.273829 -1.059305 5.666276
0.073793 -1.041975 5.668863
1.187554 -0.986450 5.677151
4.755978 -0.808550 5.703706
16.189003 -0.238570 5.788785
52.819744 1.587611 6.061375
-0.397624 -0.641419 5.641097
-0.375113 -0.640297 5.641265
-0.340776 -0.638585 5.641521
-0.232278 -0.633176 5.642328
0.115344 -0.615846 5.644915
1.229105 -0.560320 5.653203
4.797529 -0.382421 5.679757
16.230553 0.187559 5.764837
52.861298 2.013740 6.037426
-0.264496 0.723874 5.564368
-0.241985 0.724996 5.564535
-0.207648 0.726708 5.564791
-0.099150 0.732117 5.565598
0.248472 0.749447 5.568185
1.362233 0.804973 5.576473
4.930656 0.982872 5.603027
16.363682 1.552852 5.688107
52.994423 3.379033 5.960697
0.162037 5.098192 5.318530
0.184548 5.099315 5.318698
0.218885 5.101027 5.318953
0.327383 5.106436 5.319761
0.675005 5.123766 5.322348
1.788766 5.179291 5.330636
5.357190 5.357190 5.357190
16.790215 5.927170 5.442270
53.420956 7.753351 5.714859
1.528626 19.113256 4.530881
1.551137 19.114380 4.531049
1.585474 19.116091 4.531304
1.693972 19.121500 4.532112
2.041594 19.138830 4.534698
3.155355 19.194355 4.542987
6.723779 19.372255 4.569541
18.156803 19.942234 4.654621
54.787548 21.768415 4.927210
5.907095 64.016693 2.007301
5.929606 64.017815 2.007468
5.963943 64.019524 2.007724
6.072442 64.024933 2.008531
6.420063 64.042267 2.011118
7.533824 64.097794 2.019406
11.102248 64.275688 2.045961
22.535273 64.845673 2.131040
59.166016 66.671852 2.403630
-1.430879 -4.027606 18.206678
-1.408368 -4.026484 18.206846
-1.374031 -4.024772 18.207102
-1.265533 -4.019362 18.207911
-0.917911 -4.002032 18.210497
0.195850 -3.946507 18.218784
3.764274 -3.768608 18.245338
15.197299 -3.198628 18.330420
51.828041 -1.372446 18.603008
-1.428188 -4.000011 18.205128
-1.405677 -3.998889 18.205296
-1.371340 -3.997177 18.205551
-1.262842 -3.991768 18.206360
-0.915220 -3.974438 18.208946
0.198541 -3.918913 18.217234
3.766964 -3.741013 18.243788
15.199988 -3.171033 18.328869
51.830734 -1.344852 18.601458
-1.424084 -3.957919 18.202763
-1.401573 -3.956797 18.202930
-1.367236 -3.955085 18.203186
-1.258738 -3.949676 18.203993
-0.911116 -3.932346 18.206581
0.202645 -3.876821 18.214869
3.771069 -3.698921 18.241423
15.204093 -3.128942 18.326502
51.834839 -1.302760 18.599092
-1.411115 -3.824918 18.195288
-1.388604 -3.823796 18.195456
-1.354267 -3.822084 18.195711
-1.245769 -3.816675 18.196518
-0.898147 -3.799345 18.199106
0.215614 -3.743819 18.207394
3.784038 -3.565920 18.233948
15.217063 -2.995940 18.319027
51.847805 -1.169759 18.591618
-1.369564 -3.398789 18.171339
-1.347053 -3.397666 18.171507
-1.312716 -3.395955 18.171762
-1.204218 -3.390546 18.172569
-0.856596 -3.373215 18.175158
0.257165 -3.317690 18.183445
3.825589 -3.139791 18.209999
15.258613 -2.569811 18.295078
51.889359 -0.743629 18.567669
-1.236436 -2.033496 18.094610
-1.213925 -2.032373 18.094778
-1.179588 -2.030662 18.095034
-1.071090 -2.025253 18.095840
-0.723468 -2.007922 18.098427
0.390293 -1.952397 18.106716
3.958716 -1.774498 18.133270
15.391742 -1.204518 18.218349
52.022484 0.621664 18.490938
-0.809903 2.340823 17.848772
-0.787392 2.341945 17.848940
-0.753055 2.343657 17.849195
-0.644557 2.349066 17.850002
-0.296935 2.366396 17.852591
0.816826 2.421921 17.860878
4.385250 2.599821 17.887432
15.818274 3.169800 17.972511
52.449017 4.995982 18.245102
0.556686 16.355886 17.061123
0.579197 16.357010 17.061291
0.613534 16.358721 17.061546
0.722032 16.364130 17.062355
1.069654 16.381460 17.064941
2.183415 16.436985 17.073229
5.751839 16.614885 17.099783
17.184864 17.184864 17.184864
53.815609 19.011045 17.457453
4.935155 61.259327 14.537543
4.957666 61.260448 14.537711
4.992003 61.262157 14.537967
5.100502 61.267567 14.538774
5.448123 61.284901 14.541361
6.561884 61.340427 14.549648
10.130308 61.518322 14.576203
21.563334 62.088306 14.661283
58.194077 63.914486 14.933872
-4.544917 -12.862056 58.352840
-4.522406 -12.860933 58.353008
-4.488069 -12.859221 58.353264
-4.379571 -12.853813 58.354073
-4.031949 -12.836482 58.356659
-2.918188 -12.780957 58.364948
0.650236 -12.603058 58.391502
12.083261 -12.033078 58.476582
48.714001 -10.206897 58.749172
-4.542226 -12.834461 58.351292
-4.519716 -12.833340 58.351460
-4.485379 -12.831628 58.351715
-4.376880 -12.826219 58.352520
-4.029258 -12.808888 58.355106
-2.915497 -12.753363 58.363396
0.652926 -12.575463 58.389950
12.085951 -12.005484 58.475029
48.716694 -10.179302 58.747620
-4.538122 -12.792370 58.348927
-4.515611 -12.791247 58.349091
-4.481274 -12.789536 58.349346
-4.372776 -12.784126 58.350155
-4.025154 -12.766796 58.352741
-2.911393 -12.711271 58.361031
0.657031 -12.533372 58.387585
12.090055 -11.963392 58.472664
48.720798 -10.137211 58.745255
-4.525153 -12.659369 58.341450
-4.502643 -12.658246 58.341618
-4.468306 -12.656534 58.341873
-4.359807 -12.651125 58.342682
-4.012185 -12.633795 58.345268
-2.898424 -12.578270 58.353554
0.670000 -12.400370 58.380112
12.103025 -11.830390 58.465191
48.733765 -10.004209 58.737778
-4.483602 -12.233239 58.317501
-4.461091 -12.232117 58.317669
-4.426754 -12.230405 58.317924
-4.318256 -12.224996 58.318733
-3.970634 -12.207665 58.321320
-2.856873 -12.152141 58.329609
0.711551 -11.974241 58.356163
12.144575 -11.404261 58.441242
48.775318 -9.578079 58.713829
-4.350474 -10.867946 58.240772
-4.327963 -10.866824 58.240940
-4.293626 -10.865112 58.241196
-4.185128 -10.859703 58.242001
-3.837506 -10.842373 58.244591
-2.723745 -10.786847 58.252876
0.844678 -10.608948 58.279430
12.277704 -10.038968 58.364510
48.908443 -8.212787 58.637100
-3.923941 -6.493628 57.994934
-3.901430 -6.492506 57.995102
-3.867093 -6.490794 57.995358
-3.758595 -6.485384 57.996166
-3.410973 -6.468054 57.998753
-2.297212 -6.412529 58.007042
1.271212 -6.234630 58.033596
12.704237 -5.664650 58.118675
49.334976 -3.838469 58.391262
-2.557352 7.521437 57.207287
-2.534842 7.522560 57.207455
-2.500504 7.524271 57.207710
-2.392006 7.529680 57.208515
-2.044384 7.547010 57.211102
-0.930623 7.602535 57.219391
2.637801 7.780436 57.245945
14.070826 8.350414 57.331024
50.701569 10.176596 57.603615
1.821117 52.424873 54.683704
1.843628 52.425995 54.683872
1.877965 52.427704 54.684128
1.986464 52.433113 54.684937
2.334085 52.450447 54.687523
3.447846 52.505974 54.695812
7.016270 52.683868 54.722366
18.449295 53.253853 54.807446
55.080036 55.080032 55.080036
